!!!!SEGMENT: Snf0322-Qui_prophetice_prompsisti.krn
!!!id: Snf0322
!!!AGN: Motet
!!!voices: 5
!!!COM: Ludwig Senfl
!!!OTL: Qui prophetice prompsisti
**kern	**text	**kern	**text	**kern	**text	**kern	**text	**kern	**text
*part5	*part5	*part4	*part4	*part3	*part3	*part2	*part2	*part1	*part1
*staff5	*staff5	*staff4	*staff4	*staff3	*staff3	*staff2	*staff2	*staff1	*staff1
*I"Bassus	*	*I"Tenor II	*	*I"Tenor I	*	*I"Altus	*	*I"Superius	*
*I'B	*	*I'T. II	*	*I'T. I	*	*I'A	*	*I'S	*
*clefF4	*	*clefGv2	*	*clefGv2	*	*clefGv2	*	*clefG2	*
*k[b-]	*	*k[b-]	*	*k[b-]	*	*k[b-]	*	*k[b-]	*
*F:	*	*F:	*	*F:	*	*F:	*	*F:	*
*M2/1	*	*M2/1	*	*M2/1	*	*M2/1	*	*M2/1	*
*met(C|)	*	*met(C|)	*	*met(C|)	*	*met(C|)	*	*met(C|)	*
!!section: Prima pars: Qui prophetice prompsisti
!!!OMD: Prima pars: Qui prophetice prompsisti
=1	=1	=1	=1	=1	=1	=1	=1	=1	=1
0r	.	0r	.	0r	.	1r	.	1a	Qui
.	.	.	.	.	.	1e	Qui	1g	pro-
=2	=2	=2	=2	=2	=2	=2	=2	=2	=2
0r	.	0r	.	0r	.	1d	pro-	2a	.
.	.	.	.	.	.	.	.	1b-y	-phe-
.	.	.	.	.	.	2e	.	.	.
.	.	.	.	.	.	[2f	-phe-	2a	.
=3	=3	=3	=3	=3	=3	=3	=3	=3	=3
0r	.	0r	.	0r	.	2f]	.	1g	-ti-
.	.	.	.	.	.	2e	.	.	.
.	.	.	.	.	.	1d	-ti-	1f	-ce
=4	=4	=4	=4	=4	=4	=4	=4	=4	=4
0r	.	0r	.	0r	.	1c	-ce	2r	.
.	.	.	.	.	.	.	.	2a	prom-
.	.	.	.	.	.	2r	.	2b-y	-psi-
.	.	.	.	.	.	2e	prom-	2cc	.
=5	=5	=5	=5	=5	=5	=5	=5	=5	=5
0r	.	0r	.	0r	.	2f	-psi-	2a	.
.	.	.	.	.	.	2g	.	2b-y	.
.	.	.	.	.	.	2e	.	2cc	.
.	.	.	.	.	.	2f	.	2a	.
=6	=6	=6	=6	=6	=6	=6	=6	=6	=6
0r	.	0r	.	0r	.	4g	.	2b-y	.
.	.	.	.	.	.	4f	.	.	.
.	.	.	.	.	.	4e	.	2.cc	.
.	.	.	.	.	.	4d	.	.	.
.	.	.	.	.	.	2c	.	.	.
.	.	.	.	.	.	.	.	4b-y	.
.	.	.	.	.	.	2d	.	[2a	.
=7	=7	=7	=7	=7	=7	=7	=7	=7	=7
1r	.	0r	.	0r	.	1B-y	.	2a]	.
.	.	.	.	.	.	.	.	2g	.
1A	Qui	.	.	.	.	2A	-sti,	4a	-sti,
.	.	.	.	.	.	.	.	4b-y	.
.	.	.	.	.	.	4e	.	4cc	.
.	.	.	.	.	.	4f	.	4a	.
=8	=8	=8	=8	=8	=8	=8	=8	=8	=8
1G	pro-	0r	.	0r	.	4g	.	4b-y	.
.	.	.	.	.	.	4f	.	4a	.
.	.	.	.	.	.	4e	.	4g	.
.	.	.	.	.	.	4d	.	4f	.
2A	.	.	.	.	.	2c	.	2e	.
[2B-y	-phe-	.	.	.	.	4d	.	2d	.
.	.	.	.	.	.	4e	.	.	.
=9	=9	=9	=9	=9	=9	=9	=9	=9	=9
2B-]	.	0r	.	0r	.	4f	.	2r	.
.	.	.	.	.	.	4g	.	.	.
2A	.	.	.	.	.	1f	.	2a	prom-
1G	-ti-	.	.	.	.	.	.	2b-y	-psi-
.	.	.	.	.	.	2e	.	2g	.
=10	=10	=10	=10	=10	=10	=10	=10	=10	=10
0F	-ce,	0r	.	0r	.	2f	.	1a	-sti,
.	.	.	.	.	.	2c	.	.	.
.	.	.	.	.	.	4A	.	2r	.
.	.	.	.	.	.	4B-y	.	.	.
.	.	.	.	.	.	4c	.	2a	qui
.	.	.	.	.	.	4d	.	.	.
=11	=11	=11	=11	=11	=11	=11	=11	=11	=11
0r	.	0r	.	0r	.	4e	.	1g	pro-
.	.	.	.	.	.	4d	.	.	.
.	.	.	.	.	.	4c	.	.	.
.	.	.	.	.	.	4B-y	.	.	.
.	.	.	.	.	.	4A	.	2a	.
.	.	.	.	.	.	4F	.	.	.
.	.	.	.	.	.	4G	.	[2b-y	-phe-
.	.	.	.	.	.	4A	.	.	.
=12	=12	=12	=12	=12	=12	=12	=12	=12	=12
1r	.	0r	.	0r	.	4B-y	.	2b-]	.
.	.	.	.	.	.	4c	.	.	.
.	.	.	.	.	.	2.d	.	2a	.
1E	qui	.	.	.	.	.	.	1g	-ti-
.	.	.	.	.	.	8cL	.	.	.
.	.	.	.	.	.	8B-yJ	.	.	.
.	.	.	.	.	.	4c	.	.	.
.	.	.	.	.	.	4G	.	.	.
=13	=13	=13	=13	=13	=13	=13	=13	=13	=13
1D	pro-	0r	.	0r	.	4B-y	.	1f	-ce,
.	.	.	.	.	.	4A	.	.	.
.	.	.	.	.	.	2d	.	.	.
2E	.	.	.	.	.	4c	.	2r	.
.	.	.	.	.	.	4B-y	.	.	.
[2F	-phe-	.	.	.	.	4A	.	2cc	pro-
.	.	.	.	.	.	4G	.	.	.
=14	=14	=14	=14	=14	=14	=14	=14	=14	=14
2F]	.	0r	.	0r	.	4A	.	2dd	-phe-
.	.	.	.	.	.	4G	.	.	.
2E	.	.	.	.	.	1c	.	2ee	.
1D	-ti-	.	.	.	.	.	.	2ff	.
.	.	.	.	.	.	2BnXi	.	2ff	-ti-
=15	=15	=15	=15	=15	=15	=15	=15	=15	=15
0C	-ce,	0r	.	0r	.	1c	.	4ee	-ce,
.	.	.	.	.	.	.	.	4dd	.
.	.	.	.	.	.	.	.	4cc	.
.	.	.	.	.	.	.	.	4b-y	.
.	.	.	.	.	.	2r	.	4a	.
.	.	.	.	.	.	.	.	4g	.
.	.	.	.	.	.	2e	qui	2cc	.
=16	=16	=16	=16	=16	=16	=16	=16	=16	=16
0r	.	0r	.	0r	.	1d	pro-	2f	.
.	.	.	.	.	.	.	.	2ff	.
.	.	.	.	.	.	2e	.	4ee	.
.	.	.	.	.	.	.	.	4dd	.
.	.	.	.	.	.	[2f	-phe-	4cc	.
.	.	.	.	.	.	.	.	4b-y	.
=17	=17	=17	=17	=17	=17	=17	=17	=17	=17
0r	.	0r	.	0r	.	2f]	.	4a	.
.	.	.	.	.	.	.	.	4g	.
.	.	.	.	.	.	2e	.	1cc	.
.	.	.	.	.	.	1d	-ti-	.	.
.	.	.	.	.	.	.	.	2bnXi	.
=18	=18	=18	=18	=18	=18	=18	=18	=18	=18
1r	.	0r	.	0r	.	2c	-ce,	2cc	.
.	.	.	.	.	.	4A	.	4f	.
.	.	.	.	.	.	4B-y	.	4g	.
1A	qui	.	.	.	.	4c	.	4a	.
.	.	.	.	.	.	4d	.	4b-y	.
.	.	.	.	.	.	4e	.	4cc	.
.	.	.	.	.	.	4f	.	4a	.
=19	=19	=19	=19	=19	=19	=19	=19	=19	=19
1G	pro-	0r	.	0r	.	4g	.	4b-y	.
.	.	.	.	.	.	4a	.	4cc	.
.	.	.	.	.	.	2b-y	.	4dd	.
.	.	.	.	.	.	.	.	4ee	.
2A	.	.	.	.	.	4a	.	4ff	.
.	.	.	.	.	.	4g	.	4ee	.
[2B-y	-phe-	.	.	.	.	4f	.	4dd	.
.	.	.	.	.	.	4e	.	4cc	.
=20	=20	=20	=20	=20	=20	=20	=20	=20	=20
2B-]	.	0r	.	0r	.	4d	.	2b-y	.
.	.	.	.	.	.	4c	.	.	.
2A	.	.	.	.	.	1f	.	2cc	.
1G	-ti-	.	.	.	.	.	.	2b-y	.
.	.	.	.	.	.	2e	.	2g	.
=21	=21	=21	=21	=21	=21	=21	=21	=21	=21
1F	-ce,	0r	.	0r	.	4f	.	4a	.
.	.	.	.	.	.	4g	.	4b-y	.
.	.	.	.	.	.	4a	.	4cc	.
.	.	.	.	.	.	4f	.	4a	.
1r	.	.	.	.	.	4g	.	4b-y	.
.	.	.	.	.	.	4f	.	4a	.
.	.	.	.	.	.	4e	.	4g	.
.	.	.	.	.	.	4d	.	4f	.
=22	=22	=22	=22	=22	=22	=22	=22	=22	=22
0A	qui	0r	.	0r	.	2c	.	2e	.
.	.	.	.	.	.	2.e	.	2c	.
.	.	.	.	.	.	.	.	1cc	.
.	.	.	.	.	.	4c	.	.	.
.	.	.	.	.	.	4e	.	.	.
.	.	.	.	.	.	4f	.	.	.
=23	=23	=23	=23	=23	=23	=23	=23	=23	=23
1G	pro-	0r	.	0e	Qui	1g	.	1r	.
1A	.	.	.	.	.	1c	.	1cc	pro-
=24	=24	=24	=24	=24	=24	=24	=24	=24	=24
0B-y	-phe-	0r	.	0d	pro-	2r	.	1dd	-phe-
.	.	.	.	.	.	2.f	pro-	.	.
.	.	.	.	.	.	.	.	1dd	-ti-
.	.	.	.	.	.	4d	.	.	.
.	.	.	.	.	.	4f	.	.	.
.	.	.	.	.	.	4g	.	.	.
=25	=25	=25	=25	=25	=25	=25	=25	=25	=25
1A	-ti-	0r	.	0e	.	4a	-phe-	1cc	-ce,
.	.	.	.	.	.	4A	.	.	.
.	.	.	.	.	.	1c	.	.	.
1G	.	.	.	.	.	.	.	2r	.
.	.	.	.	.	.	2B-y	-ti-	2g	pro-
=26	=26	=26	=26	=26	=26	=26	=26	=26	=26
0F	-ce,	0A	Qui	0f	-phe-	1c	-ce,	2.a	-phe-
.	.	.	.	.	.	.	.	4b-y	.
.	.	.	.	.	.	2r	.	4cc	.
.	.	.	.	.	.	.	.	4dd	.
.	.	.	.	.	.	2f	pro-	[2cc	.
=27	=27	=27	=27	=27	=27	=27	=27	=27	=27
0r	.	0G	pro-	1e	-ti-	1g	-phe-	2cc]	.
.	.	.	.	.	.	.	.	4bnXi	.
.	.	.	.	.	.	.	.	4a	.
.	.	.	.	1d	.	1g	-ti-	2bni	.
.	.	.	.	.	.	.	.	2bni	-ti-
=28	=28	=28	=28	=28	=28	=28	=28	=28	=28
1r	.	0A	.	0c	-ce	2e	-ce,	1cc	-ce
.	.	.	.	.	.	2a	pro-	.	.
1F	pro-	.	.	.	.	4a	-phe-	2r	.
.	.	.	.	.	.	4g	.	.	.
.	.	.	.	.	.	4f	.	2cc	prom-
.	.	.	.	.	.	4e	.	.	.
=29	=29	=29	=29	=29	=29	=29	=29	=29	=29
1G	-phe-	0B-y	-phe-	0r	.	1d	.	4b-y	-psi-
.	.	.	.	.	.	.	.	4a	.
.	.	.	.	.	.	.	.	4g	.
.	.	.	.	.	.	.	.	4f	.
1G	-ti-	.	.	.	.	1d	-ti-	2g	.
.	.	.	.	.	.	.	.	2d	.
=30	=30	=30	=30	=30	=30	=30	=30	=30	=30
1C	-ce	1A	-ti-	0e	prom-	1c	-ce,	4e	.
.	.	.	.	.	.	.	.	4c	.
.	.	.	.	.	.	.	.	2.cc	.
1C	prom-	1G	.	.	.	2r	.	.	.
.	.	.	.	.	.	.	.	4dd	.
.	.	.	.	.	.	2c	pro-	2ee	.
=31	=31	=31	=31	=31	=31	=31	=31	=31	=31
1F	-psi-	0F	-ce	0f	.	2c	-phe-	2a	-sti,
.	.	.	.	.	.	2A	-ti-	2a	pro-
2D	-sti,	.	.	.	.	2A	-ce	[1dd	-phe-
2D	prom-	.	.	.	.	2d	prom-	.	.
=32	=32	=32	=32	=32	=32	=32	=32	=32	=32
1G	-psi-	0r	.	0g	-psi-	1B-y	-psi-	2dd]	.
.	.	.	.	.	.	.	.	2dd	-ti-
2C	-sti,	.	.	.	.	1c	-sti,	2ee	-ce
2C	prom-	.	.	.	.	.	.	2ee	prom-
=33	=33	=33	=33	=33	=33	=33	=33	=33	=33
0F	-psi-	0A	prom-	[0f	-sti:	2r	.	1ff	-psi-
.	.	.	.	.	.	2c	prom-	.	.
.	.	.	.	.	.	2c	-psi-	1cc	-sti,
.	.	.	.	.	.	[2F	-sti,	.	.
=34	=34	=34	=34	=34	=34	=34	=34	=34	=34
1BB-y	-sti,	0B-y	.	0f]	.	2F]	.	1r	.
.	.	.	.	.	.	2F	pro-	.	.
1D	prom-	.	.	.	.	2F	-phe-	1dd	prom-
.	.	.	.	.	.	2F	-ti-	.	.
=35	=35	=35	=35	=35	=35	=35	=35	=35	=35
0C	-psi-	0c	-psi-	0e	.	2G	-ce	1ee	-psi-
.	.	.	.	.	.	2.g	prom-	.	.
.	.	.	.	.	.	.	.	1cc	.
.	.	.	.	.	.	4f	.	.	.
.	.	.	.	.	.	2e	.	.	.
=36	=36	=36	=36	=36	=36	=36	=36	=36	=36
[0G	.	[0B-y	-sti:	1r	.	2d	-psi-	1dd	-sti:
.	.	.	.	.	.	2.g	.	.	.
.	.	.	.	1g	e-	.	.	2r	.
.	.	.	.	.	.	4a	.	.	.
.	.	.	.	.	.	[2b-y	.	[2dd	e-
=37	=37	=37	=37	=37	=37	=37	=37	=37	=37
0G]	.	0B-]	.	0g	-ro	2b-]	.	2dd]	.
.	.	.	.	.	.	4a	.	4cc	.
.	.	.	.	.	.	4g	.	4b-y	.
.	.	.	.	.	.	1b-y	.	2.dd	.
.	.	.	.	.	.	.	.	4ee	.
=38	=38	=38	=38	=38	=38	=38	=38	=38	=38
1D	-sti:	0A	.	0a	.	2f	-sti:	2ff	.
.	.	.	.	.	.	1f	e-	2ff	-ro
[1F	e-	.	.	.	.	.	.	1cc	mors,
.	.	.	.	.	.	2f	-ro	.	.
=39	=39	=39	=39	=39	=39	=39	=39	=39	=39
1F]	.	1r	.	0a	mors	1c	mors	2r	.
.	.	.	.	.	.	.	.	2.cc	e-
1F	-ro	1c	e-	.	.	2r	.	.	.
.	.	.	.	.	.	.	.	4b-y	.
.	.	.	.	.	.	2f	tu-	4cc	.
.	.	.	.	.	.	.	.	4dd	.
=40	=40	=40	=40	=40	=40	=40	=40	=40	=40
1C	mors	0c	-ro	0g	tu-	4e	.	2ee	.
.	.	.	.	.	.	4d	.	.	.
.	.	.	.	.	.	4c	.	2ee	-ro
.	.	.	.	.	.	8B-yL	.	.	.
.	.	.	.	.	.	8AJ	.	.	.
2E	tu-	.	.	.	.	2G	-a,	1ee	mors
2E	-a,	.	.	.	.	2G	o	.	.
=41	=41	=41	=41	=41	=41	=41	=41	=41	=41
0D	mors	0d	.	[0f	.	1A	mors,	1.ff	tu-
.	.	.	.	.	.	2r	.	.	.
.	.	.	.	.	.	2A	tu-	2dd	-a,
=42	=42	=42	=42	=42	=42	=42	=42	=42	=42
2r	.	0d	mors	0f]	.	2B-y	.	1dd	mors
2.D	tu-	.	.	.	.	2A	.	.	.
.	.	.	.	.	.	[1A	-a,	2r	.
4E	.	.	.	.	.	.	.	.	.
4F	.	.	.	.	.	.	.	[2a	tu-
4G	.	.	.	.	.	.	.	.	.
=43	=43	=43	=43	=43	=43	=43	=43	=43	=43
4A	.	0c	tu-	0e	-a,	2A]	.	4a]	.
4G	.	.	.	.	.	.	.	4b-y	.
4A	.	.	.	.	.	2a	o	4cc	.
4B-y	.	.	.	.	.	.	.	4dd	.
2c	.	.	.	.	.	1g	mors,	1ee	.
2C	.	.	.	.	.	.	.	.	.
=44	=44	=44	=44	=44	=44	=44	=44	=44	=44
2D	-a,	[0B-y	.	[0d	.	2r	.	2ff	.
2BB-y	o	.	.	.	.	2.b-y	tu-	2dd	-a,
1BB-y	mors,	.	.	.	.	.	.	2r	.
.	.	.	.	.	.	4a	.	.	.
.	.	.	.	.	.	4g	.	[2b-y	tu-
.	.	.	.	.	.	4f	.	.	.
=45	=45	=45	=45	=45	=45	=45	=45	=45	=45
2r	.	0B-]	.	0d]	.	2g	.	4b-]	.
.	.	.	.	.	.	.	.	4cc	.
2.BB-y	tu-	.	.	.	.	2f	.	4dd	.
.	.	.	.	.	.	.	.	4ee	.
.	.	.	.	.	.	1f	-a,	2ff	.
4C	.	.	.	.	.	.	.	.	.
4D	.	.	.	.	.	.	.	[2f	.
4E	.	.	.	.	.	.	.	.	.
=46	=46	=46	=46	=46	=46	=46	=46	=46	=46
4F	.	0A	-a,	0c	.	2r	.	4f]	.
4E	.	.	.	.	.	.	.	4g	.
4F	.	.	.	.	.	2f	tu-	4a	.
4G	.	.	.	.	.	.	.	4b-y	.
2A	.	.	.	.	.	4e	.	1cc	.
.	.	.	.	.	.	4d	.	.	.
2AA	-a,	.	.	.	.	4e	.	.	.
.	.	.	.	.	.	4f	.	.	.
=47	=47	=47	=47	=47	=47	=47	=47	=47	=47
2r	.	[0G	.	0r	.	2g	.	2b-y	.
2.C	tu-	.	.	.	.	2e	.	2cc	.
.	.	.	.	.	.	1e	-a,	2.g	.
4D	.	.	.	.	.	.	.	.	.
4E	.	.	.	.	.	.	.	.	.
4F	.	.	.	.	.	.	.	4a	.
=48	=48	=48	=48	=48	=48	=48	=48	=48	=48
4G	.	0G]	.	0d	o	2r	.	4b-y	.
4F	.	.	.	.	.	.	.	4a	.
4G	.	.	.	.	.	1g	tu-	4b-y	.
4A	.	.	.	.	.	.	.	4cc	.
2B-y	-a,	.	.	.	.	.	.	1dd	.
2BB-y	o	.	.	.	.	2d	-a,	.	.
=49	=49	=49	=49	=49	=49	=49	=49	=49	=49
2BB-y	mors,	0F	.	0f	.	2.d	o	1dd	-a,
2.D	tu-	.	.	.	.	.	.	.	.
.	.	.	.	.	.	4e	.	.	.
.	.	.	.	.	.	4f	.	2r	.
4E	.	.	.	.	.	4g	.	.	.
4F	.	.	.	.	.	[2a	.	2dd	tu-
4G	.	.	.	.	.	.	.	.	.
=50	=50	=50	=50	=50	=50	=50	=50	=50	=50
4A	.	0r	.	[0e	mors,	1a]	.	4cc	.
4G	.	.	.	.	.	.	.	4b-y	.
4A	.	.	.	.	.	.	.	4cc	.
4B-y	.	.	.	.	.	.	.	4dd	.
2c	-a,	.	.	.	.	1g	mors,	2.ee	.
2C	o	.	.	.	.	.	.	.	.
.	.	.	.	.	.	.	.	4dd	.
=51	=51	=51	=51	=51	=51	=51	=51	=51	=51
0C	mors,	0G	o	0e]	.	2r	.	2.cc	.
.	.	.	.	.	.	1c	tu-	.	.
.	.	.	.	.	.	.	.	8b-yL	.
.	.	.	.	.	.	.	.	8aJ	.
.	.	.	.	.	.	.	.	1g	.
.	.	.	.	.	.	2c	-a,	.	.
=52	=52	=52	=52	=52	=52	=52	=52	=52	=52
2r	.	0B-y	.	0r	.	2d	o	2f	.
2.BB-y	tu-	.	.	.	.	2.d	.	2d	-a,
.	.	.	.	.	.	.	.	1dd	o
4C	.	.	.	.	.	4e	.	.	.
4D	.	.	.	.	.	4f	.	.	.
4E	.	.	.	.	.	4g	.	.	.
=53	=53	=53	=53	=53	=53	=53	=53	=53	=53
4F	.	[0Al	mors!	0r	.	2a	.	[0ccl	mors!
4E	.	.	.	.	.	.	.	.	.
4F	.	.	.	.	.	2f	.	.	.
4G	.	.	.	.	.	.	.	.	.
2A	-a,	.	.	.	.	1e	.	.	.
2AA	o	.	.	.	.	.	.	.	.
=54	=54	=54	=54	=54	=54	=54	=54	=54	=54
00AA	mors!	00A]	.	00e	mors!	00a	mors!	00cc]	.
=55||	=55||	=55||	=55||	=55||	=55||	=55||	=55||	=55||	=55||
*M2/1	*	*M2/1	*	*M2/1	*	*M2/1	*	*M2/1	*
*met(C|)	*	*met(C|)	*	*met(C|)	*	*met(C|)	*	*met(C|)	*
!!section: Secunda pars: Qui expansis
!!!OMD: Secunda pars: Qui expansis
0A	Qui	0r	.	0r	.	0r	.	0r	.
=56	=56	=56	=56	=56	=56	=56	=56	=56	=56
1G	ex-	0r	.	0r	.	0e	Qui	0r	.
1A	.	.	.	.	.	.	.	.	.
=57	=57	=57	=57	=57	=57	=57	=57	=57	=57
2.B-y	-pan-	0r	.	0r	.	1d	ex-	0r	.
4A	.	.	.	.	.	.	.	.	.
2G	.	.	.	.	.	2e	.	.	.
2F	.	.	.	.	.	[2f	-pan-	.	.
=58	=58	=58	=58	=58	=58	=58	=58	=58	=58
2D	.	0r	.	0r	.	4f]	.	0r	.
.	.	.	.	.	.	4e	.	.	.
2F	.	.	.	.	.	1d	.	.	.
1E	.	.	.	.	.	.	.	.	.
.	.	.	.	.	.	2c#i	.	.	.
=59	=59	=59	=59	=59	=59	=59	=59	=59	=59
2D	-sis,	0r	.	0r	.	2d	.	0a	Qui
2.F	.	.	.	.	.	2c	.	.	.
.	.	.	.	.	.	1f	-sis,	.	.
4G	.	.	.	.	.	.	.	.	.
4A	.	.	.	.	.	.	.	.	.
4B-y	.	.	.	.	.	.	.	.	.
=60	=60	=60	=60	=60	=60	=60	=60	=60	=60
2.c	.	0r	.	0r	.	1e	.	1g	ex-
4B-y	.	.	.	.	.	.	.	.	.
2A	.	.	.	.	.	2f	.	2a	.
[2G	.	.	.	.	.	2g	.	[2b-y	-pan-
=61	=61	=61	=61	=61	=61	=61	=61	=61	=61
4G]	.	0r	.	0r	.	1G	.	4b-]	.
4F	.	.	.	.	.	.	.	4a	.
2E	.	.	.	.	.	.	.	1g	.
1D	.	.	.	.	.	2.A	.	.	.
.	.	.	.	.	.	.	.	2f	.
.	.	.	.	.	.	8GL	.	.	.
.	.	.	.	.	.	8FJ	.	.	.
=62	=62	=62	=62	=62	=62	=62	=62	=62	=62
2C	.	0r	.	[0e	Qui	1c	.	1g	-sis,
2.c	qui	.	.	.	.	.	.	.	.
.	.	.	.	.	.	1r	.	2r	.
4B-y	.	.	.	.	.	.	.	.	.
4A	.	.	.	.	.	.	.	[2cc	qui
4G	.	.	.	.	.	.	.	.	.
=63	=63	=63	=63	=63	=63	=63	=63	=63	=63
1A	.	[0A	Qui	1e]	.	2r	.	4cc]	.
.	.	.	.	.	.	.	.	4b-y	.
.	.	.	.	.	.	2c	qui	4a	.
.	.	.	.	.	.	.	.	4g	.
[1D	ex-	.	.	[1d	ex-	2A	ex-	2f	.
.	.	.	.	.	.	[2a	-pan-	2ff	ex-
=64	=64	=64	=64	=64	=64	=64	=64	=64	=64
1D]	.	1A]	.	0d]	.	2a]	.	4ff	-pan-
.	.	.	.	.	.	.	.	4ee	.
.	.	.	.	.	.	2f	.	4dd	.
.	.	.	.	.	.	.	.	4cc	.
1G	-pan-	[1G	ex-	.	.	[1g	.	1b-y	.
=65	=65	=65	=65	=65	=65	=65	=65	=65	=65
0C	-sis,	0G]	.	[0e	.	0g]	.	[0cc	-sis
=66	=66	=66	=66	=66	=66	=66	=66	=66	=66
1r	.	[0A	.	1e]	.	1c	-sis,	0cc]	.
1F	ex-	.	.	[1f	-pan-	2r	.	.	.
.	.	.	.	.	.	2c	ex-	.	.
=67	=67	=67	=67	=67	=67	=67	=67	=67	=67
1F	-pan-	1A]	.	0f]	.	4f	-pan-	1r	.
.	.	.	.	.	.	4e	.	.	.
.	.	.	.	.	.	4d	.	.	.
.	.	.	.	.	.	4c	.	.	.
[1BB-y	-sis	[1B-y	-pan-	.	.	2.d	.	1dd	in
.	.	.	.	.	.	4e	.	.	.
=68	=68	=68	=68	=68	=68	=68	=68	=68	=68
1BB-]	.	0B-]	.	0d	-sis	0f	.	0dd	cru-
1BB-y	in	.	.	.	.	.	.	.	.
=69	=69	=69	=69	=69	=69	=69	=69	=69	=69
0C	cru-	0G	-sis	1r	.	1e	-sis	1cc	-ce,
.	.	.	.	1e	in	1r	.	2r	.
.	.	.	.	.	.	.	.	2cc	in
=70	=70	=70	=70	=70	=70	=70	=70	=70	=70
0F	.	1r	.	[0f	cru-	2r	.	1cc	cru-
.	.	.	.	.	.	2a	in	.	.
.	.	1A	in	.	.	1a	cru-	1cc	-ce
=71	=71	=71	=71	=71	=71	=71	=71	=71	=71
0BB-y	-ce	[0B-y	cru-	0f_	.	[0d	-ce	[0dd	ma-
=72	=72	=72	=72	=72	=72	=72	=72	=72	=72
1D	ma-	1B-]	.	0f]	.	1d]	.	1dd]	.
1D	-ni-	[1A	.	.	.	1a	ma-	1dd	-ni-
=73	=73	=73	=73	=73	=73	=73	=73	=73	=73
1.AA	-bus,	0A]	.	[0e	.	2a	-ni-	0cc	-bus,
.	.	.	.	.	.	1a	-bus,	.	.
2BB-y	.	.	.	.	.	4g	.	.	.
.	.	.	.	.	.	4f	.	.	.
=74	=74	=74	=74	=74	=74	=74	=74	=74	=74
1C	.	1G	-ce	1e]	.	2e	.	1r	.
.	.	.	.	.	.	2c	in	.	.
1D	.	1F	.	[1d	-ce	4f	cru-	1a	in
.	.	.	.	.	.	4e	.	.	.
.	.	.	.	.	.	4d	.	.	.
.	.	.	.	.	.	4c	.	.	.
=75	=75	=75	=75	=75	=75	=75	=75	=75	=75
0r	.	0G	ma-	0d]	.	2B-y	.	1b-y	cru-
.	.	.	.	.	.	2G	-ce	.	.
.	.	.	.	.	.	2g	ma-	1b-y	-ce
.	.	.	.	.	.	2g	-ni-	.	.
=76	=76	=76	=76	=76	=76	=76	=76	=76	=76
1C	in	1G	-ni-	[0c	.	2e	-bus,	1.cc	ma-
.	.	.	.	.	.	2e	in	.	.
[1F	cru-	1A	.	.	.	[1f	cru-	.	.
.	.	.	.	.	.	.	.	2a	-ni-
=77	=77	=77	=77	=77	=77	=77	=77	=77	=77
2F]	.	(0A	-bus	1c]	.	2f]	.	[0a	-bus,
2F	-ce	.	.	.	.	2f	-ce	.	.
[1D	ma-	.	.	1d	ma-	[1f	ma-	.	.
=78	=78	=78	=78	=78	=78	=78	=78	=78	=78
1D]	.	(0A)	.	1d	-ni-	1f]	.	0a]	.
1AA	-ni-	.	.	1e	.	1c	-ni-	.	.
=79	=79	=79	=79	=79	=79	=79	=79	=79	=79
[0AA	-bus	[0A)	.	[0e	-bus	0c	-bus	2r	.
.	.	.	.	.	.	.	.	1cc	ma-
.	.	.	.	.	.	.	.	2a	-ni-
=80	=80	=80	=80	=80	=80	=80	=80	=80	=80
1AA]	.	0A]	.	0e]	.	1r	.	2a	-bus
.	.	.	.	.	.	.	.	2a	tra-
2r	.	.	.	.	.	1c	tra-	1cc	-xi-
2A	tra-	.	.	.	.	.	.	.	.
=81	=81	=81	=81	=81	=81	=81	=81	=81	=81
2G	-xi-	0r	.	0r	.	1d	.	2b-y	-sti
2F	-sti	.	.	.	.	.	.	1a	o-
2B-y	o-	.	.	.	.	1d	-xi-	.	.
2B-y	-mni-	.	.	.	.	.	.	2g	-mni-
=82	=82	=82	=82	=82	=82	=82	=82	=82	=82
2A	-a,	0r	.	0r	.	2c	-sti	1a	-a,
2.F	tra-	.	.	.	.	1f	o-	.	.
.	.	.	.	.	.	.	.	1cc	tra-
4G	.	.	.	.	.	.	.	.	.
2A	.	.	.	.	.	2e	-mni-	.	.
=83	=83	=83	=83	=83	=83	=83	=83	=83	=83
2B-y	.	0r	.	0r	.	2d	-a,	1dd	.
2.G	-xi-	.	.	.	.	2.g	o-	.	.
.	.	.	.	.	.	.	.	1dd	-xi-
4A	.	.	.	.	.	4f	.	.	.
2B-y	.	.	.	.	.	2d	.	.	.
=84	=84	=84	=84	=84	=84	=84	=84	=84	=84
1A	.	0r	.	0r	.	2.e	.	1cc	.
.	.	.	.	.	.	4f	.	.	.
2G	-sti	.	.	.	.	4g	.	2b-y	-sti
.	.	.	.	.	.	4f	.	.	.
2A	o-	.	.	.	.	4e	.	[2cc	o-
.	.	.	.	.	.	4d	.	.	.
=85	=85	=85	=85	=85	=85	=85	=85	=85	=85
2c	.	0r	.	0r	.	2e	.	4cc]	.
.	.	.	.	.	.	.	.	4b-y	.
2d	.	.	.	.	.	1f	.	1a	.
1B-y	-mni-	.	.	.	.	.	.	.	.
.	.	.	.	.	.	4e	.	2g	-mni-
.	.	.	.	.	.	4d	.	.	.
=86	=86	=86	=86	=86	=86	=86	=86	=86	=86
2A	-a,	1r	.	0r	.	2c	.	1a	-a,
2A	tra-	.	.	.	.	2c	-mni-	.	.
1F	-xi-	1c	tra-	.	.	1A	-a,	2r	.
.	.	.	.	.	.	.	.	2a	tra-
=87	=87	=87	=87	=87	=87	=87	=87	=87	=87
1D	-sti,	1d	.	0r	.	2r	.	1f	-xi-
.	.	.	.	.	.	2a	tra-	.	.
2r	.	1d	-xi-	.	.	2f	-xi-	2d	-sti
2G	tra-	.	.	.	.	2d	-sti	[2g	o-
=88	=88	=88	=88	=88	=88	=88	=88	=88	=88
2E	-xi-	1c	-sti	0r	.	2e	o-	4g]	.
.	.	.	.	.	.	.	.	4f	.
2C	-sti	.	.	.	.	2e	-mni-	4g	.
.	.	.	.	.	.	.	.	4a	.
2G	o-	1B-y	.	.	.	1d	-a,	2b-y	.
2G	-mni-	.	.	.	.	.	.	2b-y	-mni-
=89	=89	=89	=89	=89	=89	=89	=89	=89	=89
1C	-a,	1c	o-	1r	.	2r	.	2.g	-a,
.	.	.	.	.	.	2e	tra-	.	.
.	.	.	.	.	.	.	.	4a	.
2r	.	1B-y	-mni-	1g	tra-	2d	-xi-	4b-y	.
.	.	.	.	.	.	.	.	4cc	.
2G	tra-	.	.	.	.	2d	-sti,	4dd	.
.	.	.	.	.	.	.	.	4b-y	.
=90	=90	=90	=90	=90	=90	=90	=90	=90	=90
2F	-xi-	1A	.	1a	.	2r	.	2cc	.
2D	-sti	.	.	.	.	2d	tra-	4f	.
.	.	.	.	.	.	.	.	4g	.
2F	o-	1A	-a	1a	-xi-	2c	-xi-	4a	.
.	.	.	.	.	.	.	.	4b-y	.
2F	-mni-	.	.	.	.	2c	-sti	4cc	.
.	.	.	.	.	.	.	.	4dd	.
=91	=91	=91	=91	=91	=91	=91	=91	=91	=91
1C	-a,	0r	.	1g	-sti	2c	o-	4ee	.
.	.	.	.	.	.	.	.	4dd	.
.	.	.	.	.	.	2c	-mni-	4cc	.
.	.	.	.	.	.	.	.	4b-y	.
2r	.	.	.	1f	.	2F	-a,	4a	.
.	.	.	.	.	.	.	.	4g	.
2F	tra-	.	.	.	.	2c	tra-	2a	.
=92	=92	=92	=92	=92	=92	=92	=92	=92	=92
2E	-xi-	0r	.	1g	o-	2c	-xi-	2g	.
2C	-sti	.	.	.	.	2c	-sti	4cc	.
.	.	.	.	.	.	.	.	4b-y	.
2F	o-	.	.	1f	-mni-	[1c	o-	4a	.
.	.	.	.	.	.	.	.	4g	.
2F	-mni-	.	.	.	.	.	.	2a	.
=93	=93	=93	=93	=93	=93	=93	=93	=93	=93
1C	-a,	0r	.	1e	.	2c]	.	0g	.
.	.	.	.	.	.	2c	-mni-	.	.
2r	.	.	.	1e	-a	[1c	-a	.	.
2c	tra-	.	.	.	.	.	.	.	.
=94	=94	=94	=94	=94	=94	=94	=94	=94	=94
2A	-xi-	0r	.	2r	.	1c]	.	2r	.
2F	-sti	.	.	1f	ad	.	.	2a	tra-
2c	o-	.	.	.	.	1r	.	2a	-xi-
2c	-mni-	.	.	2e	.	.	.	2g	-sti
=95	=95	=95	=95	=95	=95	=95	=95	=95	=95
0F	-a	0r	.	1d	.	[0f	ad	2a	o-
.	.	.	.	.	.	.	.	2a	-mni-
.	.	.	.	1c	te,	.	.	1a	-a
=96	=96	=96	=96	=96	=96	=96	=96	=96	=96
0BB-y	ad	[0B-y	ad	1r	.	1f]	.	[0dd	ad
.	.	.	.	[1f	ad	[1d	te	.	.
=97	=97	=97	=97	=97	=97	=97	=97	=97	=97
0D	te	1B-]	.	0f]	.	0d]	.	0dd]	.
.	.	[1A	.	.	.	.	.	.	.
=98	=98	=98	=98	=98	=98	=98	=98	=98	=98
1AA	sae-	0A]	.	[0e	.	1.a	sae-	[0cc	te
1AA	-cu-	.	.	.	.	.	.	.	.
.	.	.	.	.	.	4g	.	.	.
.	.	.	.	.	.	4f	.	.	.
=99	=99	=99	=99	=99	=99	=99	=99	=99	=99
1C	-la,	[0G	.	1e]	.	2e	.	1cc]	.
.	.	.	.	.	.	2c	.	.	.
1r	.	.	.	[1d	.	[1g	.	[1b-y	sae-
=100	=100	=100	=100	=100	=100	=100	=100	=100	=100
1r	.	1G]	.	0d]	.	2g]	.	2b-]	.
.	.	.	.	.	.	2d	.	2b-y	-cu-
1D	ad	[1F	te	.	.	1f	.	1a	-la,
=101	=101	=101	=101	=101	=101	=101	=101	=101	=101
1F	te	1F]	.	[0c	te	1f	-cu-	2r	.
.	.	.	.	.	.	.	.	2a	ad
[1C	sae-	[1G	sae-	.	.	1e	-la,	2g	te
.	.	.	.	.	.	.	.	[2cc	.
=102	=102	=102	=102	=102	=102	=102	=102	=102	=102
1C]	.	1G]	.	1c]	.	2r	.	4cc]	.
.	.	.	.	.	.	.	.	4dd	.
.	.	.	.	.	.	2e	sae-	2ee	.
1BB-y	.	1B-y	-cu-	[1d	sae-	2g	.	[1dd	sae-
.	.	.	.	.	.	[2f	.	.	.
=103	=103	=103	=103	=103	=103	=103	=103	=103	=103
1D	.	[0Al	-la.	1d]	.	4f]	.	2dd]	.
.	.	.	.	.	.	4e	.	.	.
.	.	.	.	.	.	4d	.	2dd	-cu-
.	.	.	.	.	.	4c	.	.	.
1D	-cu-	.	.	1f	-cu-	2d	.	2.a	-la.
.	.	.	.	.	.	2d	-cu-	.	.
.	.	.	.	.	.	.	.	4b-y	.
=104	=104	=104	=104	=104	=104	=104	=104	=104	=104
00AA	-la.	00A]	.	00e	-la.	00c	-la.	00cc	.
=105||	=105||	=105||	=105||	=105||	=105||	=105||	=105||	=105||	=105||
*M2/1	*	*M2/1	*	*M2/1	*	*M2/1	*	*M2/1	*
*met(C|)	*	*met(C|)	*	*met(C|)	*	*met(C|)	*	*met(C|)	*
!!section: Tertia pars: Vita in ligno
!!!OMD: Tertia pars: Vita in ligno
0r	.	0r	.	0r	.	0r	.	1a	Vi-
.	.	.	.	.	.	.	.	1g	-ta
=106	=106	=106	=106	=106	=106	=106	=106	=106	=106
1A	Vi-	0r	.	0r	.	0r	.	1a	in
1G	-ta	.	.	.	.	.	.	1b-y	li-
=107	=107	=107	=107	=107	=107	=107	=107	=107	=107
1A	in	0r	.	0r	.	1e	Vi-	1a	.
1B-y	li-	.	.	.	.	1d	-ta	2g	-gno,
.	.	.	.	.	.	.	.	2f	.
=108	=108	=108	=108	=108	=108	=108	=108	=108	=108
1A	.	0r	.	0r	.	1r	.	2r	.
.	.	.	.	.	.	.	.	2a	in
1G	-gno	.	.	.	.	2r	.	1b-y	li-
.	.	.	.	.	.	2e	in	.	.
=109	=109	=109	=109	=109	=109	=109	=109	=109	=109
1F	.	0r	.	0r	.	1f	li-	2a	.
.	.	.	.	.	.	.	.	1cc	.
1G	mo-	.	.	.	.	1e	.	.	.
.	.	.	.	.	.	.	.	4b-y	.
.	.	.	.	.	.	.	.	4a	.
=110	=110	=110	=110	=110	=110	=110	=110	=110	=110
1G	-ri-	0r	.	0r	.	1d	-gno	4b-y	.
.	.	.	.	.	.	.	.	4a	.
.	.	.	.	.	.	.	.	4g	.
.	.	.	.	.	.	.	.	4f	.
1A	.	.	.	.	.	1c	.	2e	-gno
.	.	.	.	.	.	.	.	[2a	mo-
=111	=111	=111	=111	=111	=111	=111	=111	=111	=111
1A	-tur,	0r	.	0r	.	1r	.	4a]	.
.	.	.	.	.	.	.	.	4b-y	.
.	.	.	.	.	.	.	.	2cc	.
1r	.	.	.	.	.	1d	mo-	2f	.
.	.	.	.	.	.	.	.	[2b-y	-ri-
=112	=112	=112	=112	=112	=112	=112	=112	=112	=112
1G	mo-	0r	.	0r	.	1d	-ri-	4b-]	.
.	.	.	.	.	.	.	.	4cc	.
.	.	.	.	.	.	.	.	2dd	.
1G	-ri-	.	.	.	.	1e	.	1g	-tur,
=113	=113	=113	=113	=113	=113	=113	=113	=113	=113
1A	.	0r	.	0r	.	1e	-tur,	2r	.
.	.	.	.	.	.	.	.	2.cc	in
1A	-tur,	.	.	.	.	2r	.	.	.
.	.	.	.	.	.	.	.	4dd	.
.	.	.	.	.	.	2e	vi-	2ee	.
=114	=114	=114	=114	=114	=114	=114	=114	=114	=114
0r	.	0r	.	0r	.	2d	-ta	2ff	li-
.	.	.	.	.	.	2e	in	2ee	.
.	.	.	.	.	.	2f	li-	2dd	.
.	.	.	.	.	.	2e	.	[2cc	.
=115	=115	=115	=115	=115	=115	=115	=115	=115	=115
1r	.	0r	.	0r	.	1d	-gno,	2cc]	.
.	.	.	.	.	.	.	.	2bnXi	.
2r	.	.	.	.	.	1c	.	2.cc	.
2A	vi-	.	.	.	.	.	.	.	.
.	.	.	.	.	.	.	.	4a	.
=116	=116	=116	=116	=116	=116	=116	=116	=116	=116
2G	-ta	0r	.	0r	.	2r	.	2b-y	.
2A	in	.	.	.	.	2e	vi-	2cc	.
2B-y	li-	.	.	.	.	2d	-ta	2f	.
2A	.	.	.	.	.	[2f	.	2a	.
=117	=117	=117	=117	=117	=117	=117	=117	=117	=117
1G	-gno,	0r	.	0r	.	4f]	.	1b-y	.
.	.	.	.	.	.	4e	.	.	.
.	.	.	.	.	.	4e	in	.	.
.	.	.	.	.	.	4d	.	.	.
1F	.	.	.	.	.	2f	li-	1a	-gno,
.	.	.	.	.	.	4F	.	.	.
.	.	.	.	.	.	4G	.	.	.
=118	=118	=118	=118	=118	=118	=118	=118	=118	=118
2r	.	0r	.	0r	.	4A	.	2r	.
.	.	.	.	.	.	4B-y	.	.	.
2F	vi-	.	.	.	.	4c	.	2a	vi-
.	.	.	.	.	.	4d	.	.	.
2C	-ta	.	.	.	.	2e	.	2g	-ta
2F	in	.	.	.	.	2f	.	2a	in
=119	=119	=119	=119	=119	=119	=119	=119	=119	=119
2G	li-	0r	.	0r	.	2B-y	.	2b-y	li-
2F	.	.	.	.	.	1d	.	2a	.
1E	-gno,	.	.	.	.	.	.	1g	-gno,
.	.	.	.	.	.	2c#i	.	.	.
=120	=120	=120	=120	=120	=120	=120	=120	=120	=120
1D	.	0A	Vi-	0r	.	1d	-gno,	1f	.
2r	.	.	.	.	.	2r	.	2r	.
2AA	in	.	.	.	.	2c	in	2cc	vi-
=121	=121	=121	=121	=121	=121	=121	=121	=121	=121
1C	li-	0G	-ta	0r	.	1e	li-	2cc	-ta
.	.	.	.	.	.	.	.	2cc	in
1BB-y	.	.	.	.	.	1d	-gno,	[1dd	li-
=122	=122	=122	=122	=122	=122	=122	=122	=122	=122
0AA	-gno,	1r	.	0e	Vi-	1a	.	2dd]	.
.	.	.	.	.	.	.	.	4cc#i	.
.	.	.	.	.	.	.	.	4bnXi	.
.	.	1A	in	.	.	2r	.	1cc#i	.
.	.	.	.	.	.	2a	vi-	.	.
=123	=123	=123	=123	=123	=123	=123	=123	=123	=123
0r	.	0B-y	li-	0d	-ta	2f	-ta	2dd	.
.	.	.	.	.	.	2f	in	1ff	-gno,
.	.	.	.	.	.	2f	li-	.	.
.	.	.	.	.	.	2g	.	4ee	.
.	.	.	.	.	.	.	.	4dd	.
=124	=124	=124	=124	=124	=124	=124	=124	=124	=124
1r	.	0A	.	0r	.	1.a	.	[0cc	.
1AA	in	.	.	.	.	.	.	.	.
.	.	.	.	.	.	4g	.	.	.
.	.	.	.	.	.	4f	.	.	.
=125	=125	=125	=125	=125	=125	=125	=125	=125	=125
1C	li-	0G	-gno	1r	.	2.e	.	0cc]	.
.	.	.	.	.	.	4f	.	.	.
1C	-gno	.	.	1e	in	2g	.	.	.
.	.	.	.	.	.	[2c	.	.	.
=126	=126	=126	=126	=126	=126	=126	=126	=126	=126
1D	mo-	0F	.	0f	li-	2c]	.	0r	.
.	.	.	.	.	.	4BnXi	.	.	.
.	.	.	.	.	.	4A	.	.	.
1D	-ri-	.	.	.	.	1Bni	.	.	.
=127	=127	=127	=127	=127	=127	=127	=127	=127	=127
0C	-tur,	0G	mo-	0e	.	0c	-gno	2r	.
.	.	.	.	.	.	.	.	2cc	in
.	.	.	.	.	.	.	.	2.g	li-
.	.	.	.	.	.	.	.	4a	.
=128	=128	=128	=128	=128	=128	=128	=128	=128	=128
0r	.	0G	-ri-	0d	-gno	1g	mo-	2b-y	.
.	.	.	.	.	.	.	.	1cc	.
.	.	.	.	.	.	1g	-ri-	.	.
.	.	.	.	.	.	.	.	2b-y	.
=129	=129	=129	=129	=129	=129	=129	=129	=129	=129
1r	.	0A	.	0c	.	1e	-tur,	2cc	.
.	.	.	.	.	.	.	.	2.a	-gno
1F	in	.	.	.	.	1f	.	.	.
.	.	.	.	.	.	.	.	4b-y	.
.	.	.	.	.	.	.	.	2cc	.
=130	=130	=130	=130	=130	=130	=130	=130	=130	=130
1.D	li-	[0A	-tur;	0d	mo-	2r	.	2f	.
.	.	.	.	.	.	2f	in	2.ff	mo-
.	.	.	.	.	.	2f	li-	.	.
.	.	.	.	.	.	.	.	4ee	.
2D	-gno	.	.	.	.	2f	-gno	[2dd	.
=131	=131	=131	=131	=131	=131	=131	=131	=131	=131
1D	mo-	0A_	.	0d	-ri-	1f	mo-	2dd]	.
.	.	.	.	.	.	.	.	4cc	.
.	.	.	.	.	.	.	.	4b-y	.
1D	-ri-	.	.	.	.	1f	-ri-	2.a	.
.	.	.	.	.	.	.	.	4b-y	.
=132	=132	=132	=132	=132	=132	=132	=132	=132	=132
0AA	-tur;	0A]	.	0e	.	1c	-tur;	1cc	.
.	.	.	.	.	.	2r	.	1cc	-ri-
.	.	.	.	.	.	2c	in-	.	.
=133	=133	=133	=133	=133	=133	=133	=133	=133	=133
1r	.	0r	.	0e	-tur;	1c	-fer-	2g	-tur;
.	.	.	.	.	.	.	.	2cc	in-
1C	in-	.	.	.	.	2.G	-nus,	1cc	-fer-
.	.	.	.	.	.	4A	.	.	.
=134	=134	=134	=134	=134	=134	=134	=134	=134	=134
0D	-fer-	0r	.	0r	.	2B-y	.	2f	-nus,
.	.	.	.	.	.	1c	.	1a	.
.	.	.	.	.	.	2BnXi	.	4g	.
.	.	.	.	.	.	.	.	4f	.
=135	=135	=135	=135	=135	=135	=135	=135	=135	=135
1C	-nus,	0r	.	0r	.	2c	.	1e	.
.	.	.	.	.	.	2g	in-	.	.
1G	in-	.	.	.	.	1g	-fer-	2.d	.
.	.	.	.	.	.	.	.	4e	.
=136	=136	=136	=136	=136	=136	=136	=136	=136	=136
0A	-fer-	1r	.	0r	.	2c	-nus,	2f	.
.	.	.	.	.	.	1e	.	1g	.
.	.	1c	in-	.	.	.	.	.	.
.	.	.	.	.	.	4d	.	2f#i	.
.	.	.	.	.	.	4c	.	.	.
=137	=137	=137	=137	=137	=137	=137	=137	=137	=137
0G	-nus,	0d	-fer-	0r	.	2B-y	.	1g	.
.	.	.	.	.	.	1c	.	.	.
.	.	.	.	.	.	.	.	2r	.
.	.	.	.	.	.	2B-y	.	2dd	in-
=138	=138	=138	=138	=138	=138	=138	=138	=138	=138
2r	.	1c	-nus	0r	.	4c	.	2ee	-fer-
.	.	.	.	.	.	4B-y	.	.	.
2C	in-	.	.	.	.	4A	.	2cc	.
.	.	.	.	.	.	4G	.	.	.
1D	-fer-	1B-y	ex	.	.	1F	.	1ff	.
=139	=139	=139	=139	=139	=139	=139	=139	=139	=139
1C	-nus,	0c	mor-	1r	.	2G	.	1ee	-nus,
.	.	.	.	.	.	1g	.	.	.
2r	.	.	.	1g	in-	.	.	2r	.
2C	in-	.	.	.	.	2e	.	2ee	in-
=140	=140	=140	=140	=140	=140	=140	=140	=140	=140
1F	-fer-	0A	-su,	0a	-fer-	2f	.	2cc	-fer-
.	.	.	.	.	.	2c	in-	2.ff	.
1D	-nus,	.	.	.	.	1d	-fer-	.	.
.	.	.	.	.	.	.	.	4ee	.
.	.	.	.	.	.	.	.	4dd	.
.	.	.	.	.	.	.	.	4cc	.
=141	=141	=141	=141	=141	=141	=141	=141	=141	=141
2r	.	1r	.	1g	-nus	1G	-nus,	1b-y	.
2G	in-	.	.	.	.	.	.	.	.
1A	-fer-	1c	in-	1f	ex	1r	.	2a	.
.	.	.	.	.	.	.	.	[2cc	.
=142	=142	=142	=142	=142	=142	=142	=142	=142	=142
0G	-nus,	0d	-fer-	0g	mor-	1r	.	2cc]	.
.	.	.	.	.	.	.	.	4bnXi	.
.	.	.	.	.	.	.	.	4a	.
.	.	.	.	.	.	2r	.	1bni	.
.	.	.	.	.	.	2G	in-	.	.
=143	=143	=143	=143	=143	=143	=143	=143	=143	=143
1r	.	0c	-nus	0e	-su	1A	-fer-	1cc	-nus,
1C	in-	.	.	.	.	1G	-nus	2r	.
.	.	.	.	.	.	.	.	2cc	in-
=144	=144	=144	=144	=144	=144	=144	=144	=144	=144
0D	-fer-	1r	.	0f	de-	1r	.	2a	-fer-
.	.	.	.	.	.	.	.	2a	-nus
.	.	1B-y	ex	.	.	1F	ex	1dd	ex
=145	=145	=145	=145	=145	=145	=145	=145	=145	=145
1C	-nus	1c	mor-	0e	.	1G	mor-	1ee	mor-
1C	ex	1A	-su	.	.	1E	-su	1cc	-su
=146	=146	=146	=146	=146	=146	=146	=146	=146	=146
0BB-y	mor-	0B-y	de-	0d	-spo-	1F	de-	2.dd	de-
.	.	.	.	.	.	.	.	4cc	.
.	.	.	.	.	.	[1f	-spo-	4dd	.
.	.	.	.	.	.	.	.	4ee	.
.	.	.	.	.	.	.	.	[2ff	.
=147	=147	=147	=147	=147	=147	=147	=147	=147	=147
0F	-su	0A	.	0c	.	2f]	.	2ff]	.
.	.	.	.	.	.	2f	-li-	4ee	.
.	.	.	.	.	.	.	.	4dd	.
.	.	.	.	.	.	1f	-a-	1cc	.
=148	=148	=148	=148	=148	=148	=148	=148	=148	=148
0r	.	0G	-spo-	0d	-li-	2B-y	-tur,	2b-y	-spo-
.	.	.	.	.	.	2B-y	de-	2g	-li-
.	.	.	.	.	.	2.B-y	-spo-	1b-y	-a-
.	.	.	.	.	.	4c	-li-	.	.
=149	=149	=149	=149	=149	=149	=149	=149	=149	=149
1r	.	0F	.	0f	.	2d	-a-	1a	-tur,
.	.	.	.	.	.	1c	.	.	.
1D	de-	.	.	.	.	.	.	2r	.
.	.	.	.	.	.	2BnXi	.	2dd	de-
=150	=150	=150	=150	=150	=150	=150	=150	=150	=150
1C	-spo-	0G	-li-	1e	-a-	2c	-tur,	2ee	-spo-
.	.	.	.	.	.	2c	de-	2cc	-li-
1C	-li-	.	.	1e	-tur,	2g	-spo-	1ee	-a-
.	.	.	.	.	.	2g	-li-	.	.
=151	=151	=151	=151	=151	=151	=151	=151	=151	=151
0G	-a-	0B-y	.	0r	.	1g	-a-	2dd	-tur,
.	.	.	.	.	.	.	.	2g	de-
.	.	.	.	.	.	2d	-tur,	2g	-spo-
.	.	.	.	.	.	2d	de-	2g	-li-
=152	=152	=152	=152	=152	=152	=152	=152	=152	=152
0D	-tur,	0A	-a-	0f	de-	2d	-spo-	1dd	-a-
.	.	.	.	.	.	2d	-li-	.	.
.	.	.	.	.	.	1d	-a-	1a	-tur,
=153	=153	=153	=153	=153	=153	=153	=153	=153	=153
1r	.	[0Al	-tur.	0e	.	1c	-tur,	2r	.
.	.	.	.	.	.	.	.	2cc	de-
2r	.	.	.	.	.	2r	.	2cc	-spo-
2AA	de-	.	.	.	.	2c	de-	2cc	-li-
=154	=154	=154	=154	=154	=154	=154	=154	=154	=154
2D	-spo-	0A_	.	0d	-spo-	2f	-spo-	1dd	-a-
2D	-li-	.	.	.	.	2f	-li-	.	.
1D	-a-	.	.	.	.	1f	-a-	1a	-tur,
=155	=155	=155	=155	=155	=155	=155	=155	=155	=155
1AA	-tur,	0A_	.	0c	.	2e	-tur,	2r	.
.	.	.	.	.	.	2e	de-	2ee	de-
2r	.	.	.	.	.	2a	-spo-	2ee	-spo-
2AA	de-	.	.	.	.	2a	-li-	2ee	-li-
=156	=156	=156	=156	=156	=156	=156	=156	=156	=156
1D	-spo-	0A_	.	0d	-li-	1a	-a-	1ff	-a-
1D	-li-	.	.	.	.	2f	.	1dd	-tur,
.	.	.	.	.	.	[2a	.	.	.
=157	=157	=157	=157	=157	=157	=157	=157	=157	=157
0D	-a-	0A_	.	0f	.	4a]	.	2r	.
.	.	.	.	.	.	4g	.	.	.
.	.	.	.	.	.	4f	.	2a	de-
.	.	.	.	.	.	4e	.	.	.
.	.	.	.	.	.	4d	.	2a	-spo-
.	.	.	.	.	.	4c	.	.	.
.	.	.	.	.	.	2d	.	2a	-li-
=158	=158	=158	=158	=158	=158	=158	=158	=158	=158
[0AAl	-tur.	0A_	.	0e	-a-	[0cl	-tur.	1.cc	-a-
.	.	.	.	.	.	.	.	2a	.
=159	=159	=159	=159	=159	=159	=159	=159	=159	=159
00AA]	.	00A]	.	00el	-tur.	00c]	.	00al	-tur.
==	==	==	==	==	==	==	==	==	==
*-	*-	*-	*-	*-	*-	*-	*-	*-	*-
!!!system-decoration: [*]
!!!RDF**kern: i = editorial accidental
!!!RDF**kern: l = terminal long
!!!!PTL: <i> New Senfl Edition: Motets for Five Voices</i>
!!!PPR: Hollitzer Verlag
!!!PC#: Denkmäler der Tonkunst in Österreich 163.3
!!!PDT: 2022
!!!PED: Scott Lee Edwards, Stefan Gasch, and Sonja Tröster
!!!YEC: Copyright 2022 Denkmäler der Tonkunst in Österreich
!!!YEM: CC-BY-NC 4.0 (https://creativecommons.org/licenses/by-nc/4.0/legalcode)
!!!EED: Benjamin Ory
!!!EEV: 2025/11/6
!!!verovio: header encoded
!!!header-left: @{PTL}\n@{PED}, eds.\n@{PC#} (@{PDT})&nbsp;\n
!!!header-right:
!!!header-center: